local/templates/.default/frontend/main/images/icons/pdf.svg

<svg width="25" height="25" viewBox="0 0 25 25" fill="none" xmlns="http://www.w3.org/2000/svg">
<path d="M24.9932 11.426C24.9901 11.3786 24.9812 11.3333 24.9656 11.2885C24.9599 11.2719 24.9557 11.2557 24.9484 11.2396C24.9234 11.1854 24.8917 11.1344 24.8479 11.0911C24.8474 11.0906 24.8474 11.0906 24.8474 11.0906L21.875 8.11771V5.20833C21.875 5.19687 21.8693 5.18698 21.8682 5.17552C21.8651 5.12969 21.8562 5.08542 21.8417 5.04167C21.8359 5.025 21.8318 5.00885 21.824 4.99271C21.7984 4.9375 21.7667 4.8849 21.7219 4.8401L17.0344 0.152604C16.9896 0.107813 16.937 0.0755208 16.8812 0.05C16.8656 0.0432292 16.85 0.0385417 16.8344 0.0333333C16.7896 0.0177083 16.7437 0.00885417 16.6969 0.00572917C16.6865 0.00520833 16.6771 0 16.6667 0H3.64583C3.35833 0 3.125 0.233333 3.125 0.520833V8.11771L0.152604 11.0901C0.152604 11.0901 0.152083 11.0906 0.151562 11.0911C0.107813 11.1349 0.0765625 11.1859 0.0515625 11.2396C0.0442708 11.2557 0.0401042 11.2719 0.034375 11.2885C0.01875 11.3333 0.009375 11.3786 0.00677083 11.426C0.00572917 11.4375 0 11.4469 0 11.4583V21.3542C0 21.6417 0.233333 21.875 0.520833 21.875H3.125V24.4792C3.125 24.7667 3.35833 25 3.64583 25H21.3542C21.6417 25 21.875 24.7667 21.875 24.4792V21.875H24.4792C24.7667 21.875 25 21.6417 25 21.3542V11.4583C25 11.4469 24.9943 11.4375 24.9932 11.426ZM23.2219 10.9375H21.875V9.59062L23.2219 10.9375ZM20.0969 4.6875H17.1875V1.77812L20.0969 4.6875ZM4.16667 1.04167H16.1458V5.20833C16.1458 5.49583 16.3792 5.72917 16.6667 5.72917H20.8333V8.33333V10.9375H4.16667V8.33333V1.04167ZM3.125 9.59062V10.9375H1.77812L3.125 9.59062ZM20.8333 23.9583H4.16667V21.875H20.8333V23.9583ZM23.9583 20.8333H1.04167V11.9792H3.64583H21.3542H23.9583V20.8333Z" fill="black"/>
<path d="M9.50731 13.9167C9.33908 13.7724 9.14898 13.6703 8.93596 13.6115C8.72346 13.5526 8.51669 13.5229 8.31617 13.5229H6.58075V19.7917H7.62554V17.2771H8.36929C8.58752 17.2771 8.80002 17.2386 9.00679 17.162C9.21356 17.0854 9.39637 16.9672 9.55575 16.8078C9.71512 16.6485 9.84325 16.4495 9.94117 16.2099C10.0386 15.9709 10.0875 15.6922 10.0875 15.3735C10.0875 15.0193 10.0328 14.724 9.92346 14.4881C9.81408 14.2521 9.67554 14.0615 9.50731 13.9167ZM8.83908 16.1485C8.67971 16.3224 8.47606 16.4094 8.22815 16.4094H7.62606V14.4172H8.22815C8.47606 14.4172 8.67971 14.4938 8.83908 14.6474C8.99846 14.8011 9.07815 15.0459 9.07815 15.3823C9.07815 15.7188 8.99846 15.974 8.83908 16.1485Z" fill="black"/>
<path d="M16.0016 19.7917H17.0729V17.1H18.6755V16.1881H17.0646V14.4792H18.8084V13.5229H16.0016V19.7917Z" fill="black"/>
<path d="M12.5396 13.5229H10.9636V19.7917H12.5307C13.3396 19.7917 13.9521 19.5188 14.3682 18.9729C14.7844 18.4266 14.9922 17.6578 14.9922 16.6662C14.9922 15.6745 14.7844 14.9026 14.3682 14.3506C13.9521 13.799 13.3427 13.5229 12.5396 13.5229ZM13.8281 17.6266C13.7604 17.9016 13.6641 18.1302 13.5406 18.3131C13.4167 18.4959 13.2693 18.6334 13.0979 18.7245C12.9266 18.8162 12.7406 18.862 12.5401 18.862H12.0354V14.4526H12.5401C12.7406 14.4526 12.9266 14.4985 13.0979 14.5901C13.2693 14.6813 13.4167 14.8188 13.5406 15.0016C13.6646 15.1844 13.7604 15.4146 13.8281 15.6922C13.8959 15.9698 13.9302 16.2943 13.9302 16.6662C13.9302 17.0323 13.8959 17.3521 13.8281 17.6266Z" fill="black"/>
</svg>

<svg width="25" height="25" fill="none" xmlns="http://www.w3.org/2000/svg"><path d="M24.993 11.426a.516.516 0 0 0-.027-.137c-.006-.017-.01-.033-.018-.05a.498.498 0 0 0-.1-.148l-2.973-2.973v-2.91c0-.011-.006-.021-.007-.032a.538.538 0 0 0-.026-.134c-.006-.017-.01-.033-.018-.05a.52.52 0 0 0-.102-.152L17.034.153a.516.516 0 0 0-.153-.103c-.015-.007-.031-.011-.047-.017a.52.52 0 0 0-.137-.027c-.01 0-.02-.006-.03-.006H3.646a.521.521 0 0 0-.521.52v7.598L.153 11.09l-.001.001a.51.51 0 0 0-.1.149c-.008.016-.012.032-.018.049a.496.496 0 0 0-.027.137c-.001.011-.007.02-.007.032v9.896c0 .288.233.521.52.521h2.605v2.604c0 .288.233.521.52.521h17.71c.287 0 .52-.233.52-.52v-2.605h2.604c.288 0 .521-.233.521-.52v-9.897c0-.011-.006-.02-.007-.032zm-1.771-.489h-1.347V9.591l1.347 1.347zm-3.125-6.25h-2.91V1.779l2.91 2.91zM4.167 1.042h11.979v4.166c0 .288.233.521.52.521h4.167v5.208H4.167V1.043zM3.125 9.59v1.347H1.778L3.125 9.59zm17.708 14.367H4.167v-2.083h16.666v2.083zm3.125-3.125H1.042V11.98H23.958v8.854z" fill="#000"/><path d="M9.507 13.917a1.467 1.467 0 0 0-.571-.306 2.317 2.317 0 0 0-.62-.088H6.581v6.269h1.045v-2.515h.743c.219 0 .431-.038.638-.115.207-.077.39-.195.549-.354.16-.16.287-.358.385-.598.098-.24.146-.518.146-.837 0-.354-.054-.649-.164-.885a1.661 1.661 0 0 0-.416-.571zm-.668 2.231a.792.792 0 0 1-.61.261h-.603v-1.992h.602c.248 0 .452.077.611.23.16.154.24.399.24.735 0 .337-.08.592-.24.766zM16.002 19.792h1.07V17.1h1.604v-.912h-1.611V14.48h1.743v-.956h-2.806v6.269zM12.54 13.523h-1.576v6.269h1.567c.809 0 1.421-.273 1.837-.82.416-.545.624-1.314.624-2.306s-.208-1.763-.624-2.315c-.416-.552-1.025-.828-1.828-.828zm1.288 4.104a2.13 2.13 0 0 1-.287.686 1.24 1.24 0 0 1-.443.412 1.164 1.164 0 0 1-.558.137h-.505v-4.41h.505c.2 0 .387.046.558.138.171.091.319.229.443.412.124.182.22.413.287.69.068.278.102.602.102.974 0 .366-.034.686-.102.96z" fill="#000"/></svg>
